X: 72
T: Salve regina I
N: Derived from Ock2004-Salve_regina_I.krn
C: Johannes Ockeghem
%%abc-version 2.0
%%abcx-abcm2ps-target-version 5.9.1 (29 Sep 2008)
%%abc-creator hum2abc beta
%%abcx-conversion-date 2019/02/17 07:26:16
%%abc-edited-by Jesse Rodin
%%abc-edited-by Chris Gage 06-13-2012
%%abcx-initial-encoding-date 2012/08/10/
%%humdrum-veritas 2302172326
%%humdrum-veritas-data 1386483764
%%linebreak <none>
%%barnumbers 0
L: 1/4
M: 3/1
Q: 1/2=120
%%staves [1 2 3 4]
V: 1 clef=treble
V: 2 clef=treble-8
V: 3 clef=bass
V: 4 clef=bass
K: C
[V:1] A12 | 
[V:2] a6g2f3e | 
[V:3] z12 | 
[V:4] z12 | 
[V:1] G12 | 
[V:2] e2defedcB4 | 
[V:3] z12 | 
[V:4] z12 | 
[V:1] A2c2B2A4G2 | 
[V:2] A4G2A2c2B2 | 
[V:3] z12 | 
[V:4] z12 | 
[V:1] A4F2GA_BAGF | 
[V:2] A2d4c2d2e2 | 
[V:3] z12 | 
[V:4] z12 | 
[V:1] E2A3GF2G2E2 | 
[V:2] c4z4c4 | 
[V:3] z12 | 
[V:4] z12 | 
[V:1] D3CB,2A,2C2D2 | 
[V:2] d2f2g2a4b2 | 
[V:3] z12 | 
[V:4] z12 | 
[V:1] F2E3DD2z2G2 | 
[V:2] a4g2f2e3d | 
[V:3] z12 | 
[V:4] z12 | 
[V:1] A3Bc2d3cBA | 
[V:2] d2f2e2d2f4 | 
[V:3] z12 | 
[V:4] z12 | 
[V:1] c2B2G4z4 | 
[V:2] e6dB^c4 | 
[V:3] z12 | 
[V:4] E,12 | 
[V:1] A8F4 | 
[V:2] z4d8 | 
[V:3] A,12 | 
[V:4] D,12 | 
[V:1] G6A2B4 | 
[V:2] c4B4e4 | 
[V:3] G,12 | 
[V:4] E,12 | 
[V:1] c2A4F2E2G2- | 
[V:2] e2f4d2c3B | 
[V:3] A,4D,4z4 | 
[V:4] A,,4z4E,4- | 
[V:1] G2F4E2D4 | 
[V:2] c2dcBAA4G2 | 
[V:3] z12 | 
[V:4] E,2D,4C,2B,,4 | 
[V:1] E2F4D2E4 | 
[V:2] c4d4z2g2 | 
[V:3] A,4D,2F,2E,4 | 
[V:4] A,,4B,,2D,4C,2 | 
[V:1] A,4A4z2B2 | 
[V:2] f2d2e2f2d4 | 
[V:3] D,2F,2E,2A,4^G,2 | 
[V:4] D,4C,2A,,2B,,4 | 
[V:1] c3BAGA2E3C | 
[V:2] f2e2c8 | 
[V:3] A,2C3B,A,G,A,2E,2 | 
[V:4] A,,12- | 
[V:1] D2E4A3GE2 | 
[V:2] A2c2e2d4^c2 | 
[V:3] F,2E,2C,2D,2E,4 | 
[V:4] A,,12 | 
[V:1] F8G4 | 
[V:2] d8e4 | 
[V:3] D,8G,4 | 
[V:4] z12 | 
[V:1] C4D8 | 
[V:2] f4g3fd4 | 
[V:3] A,4B,8 | 
[V:4] z4G,,8 | 
[V:1] C8z4 | 
[V:2] z2a3ge2f2d2- | 
[V:3] A,8F,4- | 
[V:4] A,,4C,4D,4- | 
[V:1] A4c3BG4 | 
[V:2] dcf4e2e2d2 | 
[V:3] F,4G,8 | 
[V:4] D,4C,8 | 
[V:1] A8G4- | 
[V:2] f8e4- | 
[V:3] F,8z4 | 
[V:4] z4D,4E,4- | 
[V:1] G2E2E4z4 | 
[V:2] e4c4z4 | 
[V:3] G,4A,4D,2E,2- | 
[V:4] E,4A,,4B,,2C,2- | 
[V:1] z12 | 
[V:2] z12 | 
[V:3] E,2D,2C,4B,,4 | 
[V:4] C,2B,,4A,,4^G,,2 | 
[V:1] E8F4 | 
[V:2] c8A4 | 
[V:3] A,,4z2A,4G,F, | 
[V:4] A,,8z4 | 
[V:1] E4A4G4 | 
[V:2] c2e4c2B4 | 
[V:3] G,2C4A,4G,2 | 
[V:4] E,4C,2D,2E,4 | 
[V:1] z4A4B4 | 
[V:2] A4e4z4 | 
[V:3] z2C3A,C2B,2G,2 | 
[V:4] A,,4z4E,4- | 
[V:1] G4z2A3GE2 | 
[V:2] e4f4e2a2- | 
[V:3] B,2C2D4z4 | 
[V:4] E,4D,4C,4 | 
[V:1] F2D2E4z2E2 | 
[V:2] a2g2a4g4- | 
[V:3] D4C3B,G,2A,2 | 
[V:4] B,,4A,,4B,,2C,2 | 
[V:1] D2F3GA2B2d2 | 
[V:2] g2f4e2d4 | 
[V:3] B,4A,4z2G,2 | 
[V:4] B,,2D,4C,2B,,4 | 
[V:1] c8A4 | 
[V:2] z4e4f4 | 
[V:3] A,8C4 | 
[V:4] A,,12 | 
[V:1] B4c6B2 | 
[V:2] g4e6c2 | 
[V:3] B,4A,4G,4 | 
[V:4] G,,4A,,4C,4 | 
[V:1] G4F4D4 | 
[V:2] c4z4f3g | 
[V:3] A,2C4B,2B,2A,2 | 
[V:4] D,12 | 
[V:1] E3FG2A2c4 | 
[V:2] a2g2e3fg4 | 
[V:3] C6A,2G,4 | 
[V:4] C,12 | 
[V:1] z2c4A2G2F2 | 
[V:2] a3ge2f2c2f2 | 
[V:3] F,4C,2F,3E,F,2 | 
[V:4] z12 | 
[V:1] E2D2C2c2B2d2- | 
[V:2] g2a3ff2e2d2 | 
[V:3] C,2F,4A,2G,4 | 
[V:4] z12 | 
[V:1] dcA2G2A2B4 | 
[V:2] f4e2c2B4 | 
[V:3] F,4z4G,4 | 
[V:4] D,4E,8 | 
[V:1] c4A4F4 | 
[V:2] A4z4a4- | 
[V:3] A,12 | 
[V:4] A,,3B,,C,2D,4A,,2- | 
[V:1] E6F2G2C2- | 
[V:2] a2g2e8 | 
[V:3] E,4G,2A,2B,2C2 | 
[V:4] A,,2C,3B,,A,,2G,,2A,,2- | 
[V:1] C2E2F2D4^C2 | 
[V:2] z2A2B2G2A4 | 
[V:3] A,4D,4E,4 | 
[V:4] A,,2C,2B,,4A,,4 | 
[V:1] D4z4A4 | 
[V:2] z4d8 | 
[V:3] D,8z4 | 
[V:4] z12 | 
[V:1] A4c8 | 
[V:2] c8e4 | 
[V:3] E,12 | 
[V:4] A,,8C,4 | 
[V:1] B4G8 | 
[V:2] d6c4Bc | 
[V:3] F,4G,8 | 
[V:4] D,4E,8 | 
[V:1] F3G_B2A4F2 | 
[V:2] d4z4d4 | 
[V:3] z4A,4B,4 | 
[V:4] D,4D,8 | 
[V:1] E4F2G4B2- | 
[V:2] G2c2A2c2B2G2- | 
[V:3] C2A,4G,2B,4 | 
[V:4] C,4D,2E,4B,,2- | 
[V:1] B2A3GE2F2D2 | 
[V:2] G2d3Bc2d3e | 
[V:3] D3CB,A,A,4G,2 | 
[V:4] B,,2D,4C,2B,,4 | 
[V:1] C2D2F4z2G2- | 
[V:2] f4d2f2e4 | 
[V:3] A,2G,A,F,2D,2E,4 | 
[V:4] A,,2B,,2D,2D,4C,2 | 
[V:1] G2^F2G4B4- | 
[V:2] A4B4G4 | 
[V:3] z2D,4E,2D,2G,2- | 
[V:4] D,4G,,8- | 
[V:1] B2A2A3GF4 | 
[V:2] d4z4d3c | 
[V:3] G,F,D,2C,4z2D,2 | 
[V:4] G,,4A,,4B,,4 | 
[V:1] E4z4z4 | 
[V:2] A4G2G4^F2 | 
[V:3] C,2A,,2B,,2D,4C,2 | 
[V:4] C,4B,,2G,,2A,,4 | 
[V:1] B8c4 | 
[V:2] G4B4A4 | 
[V:3] D,4D4C4 | 
[V:4] G,,8A,,4 | 
[V:1] d3cBAA3BAG/F/ | 
[V:2] G4z4A4 | 
[V:3] B,2D6C2A,2- | 
[V:4] z12 | 
[V:1] E4A2A4^G2 | 
[V:2] c2B2A2e4d2 | 
[V:3] A,2G,2C2A,2B,4 | 
[V:4] z12 | 
[V:1] A8z4 | 
[V:2] e4f2a3gf2 | 
[V:3] z2A,4A,2E,2A,2- | 
[V:4] A,,12 | 
[V:1] A8G4- | 
[V:2] e4d4c2e2- | 
[V:3] A,2G,2F,4E,4 | 
[V:4] C,4D,4E,4 | 
[V:1] G4E4D4 | 
[V:2] e2dcB4z4 | 
[V:3] z4z4B,4 | 
[V:4] z4G,8 | 
[V:1] A4G4F4 | 
[V:2] z12 | 
[V:3] A,2D4C2D2A,2- | 
[V:4] D,4E,4D,4 | 
[V:1] E4z4z4 | 
[V:2] z12 | 
[V:3] A,2G,2E,2G,2F,4 | 
[V:4] C,3D,E,2E,4D,2 | 
[V:1] G6F2D4 | 
[V:2] B6A2B4 | 
[V:3] E,6F,2G,4 | 
[V:4] E,8z4 | 
[V:1] E8D4 | 
[V:2] c4A4G4 | 
[V:3] z4A,4D,4 | 
[V:4] A,,8B,,4 | 
[V:1] G4F3ED4 | 
[V:2] c4B8 | 
[V:3] E,4F,8 | 
[V:4] C,4D,8 | 
[V:1] C8E4 | 
[V:2] A8c3B | 
[V:3] E,8z4 | 
[V:4] A,,12 | 
[V:1] D2E4D2C4 | 
[V:2] G2A4G4^F2 | 
[V:3] z12 | 
[V:4] B,,2C,4B,,2A,,4 | 
[V:1] B,4B4c4 | 
[V:2] G8z4 | 
[V:3] D,4E,8 | 
[V:4] G,,4z4A,,4 | 
[V:1] A4B4A4 | 
[V:2] c4B4e4 | 
[V:3] F,4G,4A,4 | 
[V:4] A,,4G,,4C,4 | 
[V:1] F4G8 | 
[V:2] d4c3de4 | 
[V:3] B,4z2C4B,C | 
[V:4] D,4E,8 | 
[V:1] F4D4E4 | 
[V:2] A2d3cBAG4 | 
[V:3] D2A,2B,A,G,F,E,4 | 
[V:4] D,4B,,4C,4 | 
[V:1] F4D2E2F2G2 | 
[V:2] c2d2f2e2d4 | 
[V:3] A,4B,2A,4G,2 | 
[V:4] z2D,4C,2B,,4 | 
[V:1] z2F2G4c4 | 
[V:2] c4d3ef2a2- | 
[V:3] A,2C2B,4A,2F,2- | 
[V:4] A,,4G,,4A,,4 | 
[V:1] z2B2c2A3GE2 | 
[V:2] a2g2f2ed^c3B | 
[V:3] F,2G,2A,2F,2E,4 | 
[V:4] B,,4A,,8 | 
[V:1] F12 ||  
[V:2] d8A4 ||  
[V:3] D,12 ||  
[V:4] z4D,8 ||  
[V:1]  [K:C] [K:clef=treble][M:2/1]z8 | 
[V:2]  [K:C] [K:clef=treble-8][M:2/1]z8 | 
[V:3]  [K:C] [K:clef=bass][M:2/1]G,6A,2 | 
[V:4]  [K:C] [K:clef=bass][M:2/1]C,8 | 
[V:1] z8 | 
[V:2] z8 | 
[V:3] B,4A,2A,2- | 
[V:4] D,8- | 
[V:1] z8 | 
[V:2] z8 | 
[V:3] A,2G,F,E,4 | 
[V:4] D,4C,4 | 
[V:1] z8 | 
[V:2] z8 | 
[V:3] D,8 | 
[V:4] B,,4D,4- | 
[V:1] z8 | 
[V:2] z8 | 
[V:3] A,4G,4 | 
[V:4] D,4E,4- | 
[V:1] z8 | 
[V:2] z8 | 
[V:3] B,6C2 | 
[V:4] E,2F,2G,4- | 
[V:1] z8 | 
[V:2] z8 | 
[V:3] D8 | 
[V:4] G,4D,4 | 
[V:1] z8 | 
[V:2] z8 | 
[V:3] B,4C4 | 
[V:4] E,8 | 
[V:1] z8 | 
[V:2] z8 | 
[V:3] D6A,2 | 
[V:4] D,8 | 
[V:1] z8 | 
[V:2] z8 | 
[V:3] _B,A,G,F,E,4 | 
[V:4] C,8 | 
[V:1] A8- | 
[V:2] d8 | 
[V:3] D,8 | 
[V:4] D,8- | 
[V:1] A8 | 
[V:2] f8 | 
[V:3] z8 | 
[V:4] D,8 | 
[V:1] G8- | 
[V:2] e6d2 | 
[V:3] z8 | 
[V:4] E,8 | 
[V:1] G8 | 
[V:2] B8 | 
[V:3] z8 | 
[V:4] z8 | 
[V:1] A8 | 
[V:2] c6d2 | 
[V:3] z8 | 
[V:4] A,8 | 
[V:1] c8 | 
[V:2] e4f4- | 
[V:3] z8 | 
[V:4] A,8 | 
[V:1] B8 | 
[V:2] f2d2e4 | 
[V:3] z8 | 
[V:4] G,8 | 
[V:1] A8 | 
[V:2] f4d4- | 
[V:3] z8 | 
[V:4] F,8 | 
[V:1] B4c4- | 
[V:2] d4c4 | 
[V:3] z8 | 
[V:4] G,4A,4- | 
[V:1] c2BAG4 | 
[V:2] e8 | 
[V:3] z8 | 
[V:4] A,4E,4- | 
[V:1] c8 | 
[V:2] g4f4- | 
[V:3] z8 | 
[V:4] E,4A,4- | 
[V:1] A4B4 | 
[V:2] f2e4d2 | 
[V:3] z8 | 
[V:4] A,4G,4 | 
[V:1] G8 | 
[V:2] e2B2c4 | 
[V:3] z8 | 
[V:4] E,8 | 
[V:1] F4A4- | 
[V:2] z4f4 | 
[V:3] z8 | 
[V:4] D,8 | 
[V:1] A2G2E4 | 
[V:2] e4g4 | 
[V:3] z8 | 
[V:4] z4C,4 | 
[V:1] D2C2B,4 | 
[V:2] f4e4- | 
[V:3] z8 | 
[V:4] D,4E,4 | 
[V:1] A,4A4- | 
[V:2] e2d2d4- | 
[V:3] z8 | 
[V:4] F,8 | 
[V:1] A4G4 | 
[V:2] d4^c4 | 
[V:3] z8 | 
[V:4] E,8 | 
[V:1] F6E2 | 
[V:2] d4a4- | 
[V:3] D,8 | 
[V:4] D,8- | 
[V:1] D8 | 
[V:2] a2g2f4 | 
[V:3] F,6G,2 | 
[V:4] D,8 | 
[V:1] C8 | 
[V:2] e8 | 
[V:3] A,8 | 
[V:4] A,,8- | 
[V:1] A,8 | 
[V:2] z4e4 | 
[V:3] C8 | 
[V:4] A,,8 | 
[V:1] z8 | 
[V:2] d4f4 | 
[V:3] B,4D4 | 
[V:4] B,,8 | 
[V:1] A8 | 
[V:2] e8 | 
[V:3] C4A,4- | 
[V:4] C,8 | 
[V:1] B8 | 
[V:2] d8 | 
[V:3] A,4G,4 | 
[V:4] B,,8 | 
[V:1] c8 | 
[V:2] c8 | 
[V:3] z4A,4 | 
[V:4] A,,8 | 
[V:1] d4B4- | 
[V:2] z4d4 | 
[V:3] D,8 | 
[V:4] G,,8 | 
[V:1] B2A2A4 | 
[V:2] e4f4 | 
[V:3] G,4A,4 | 
[V:4] z8 | 
[V:1] z4d4 | 
[V:2] g2f2d4 | 
[V:3] B,8 | 
[V:4] G,,8 | 
[V:1] c4A4 | 
[V:2] f4e4- | 
[V:3] A,4C4- | 
[V:4] A,,8 | 
[V:1] G4c4- | 
[V:2] e2d2f4- | 
[V:3] C4A,4 | 
[V:4] z8 | 
[V:1] c2B2G4 | 
[V:2] f2d2e4 | 
[V:3] G,8 | 
[V:4] C,8 | 
[V:1] A8 | 
[V:2] f8 | 
[V:3] F,8 | 
[V:4] z4D,4- | 
[V:1] A4c4- | 
[V:2] f4e4 | 
[V:3] z8 | 
[V:4] D,4C,4 | 
[V:1] c2B2A4 | 
[V:2] d6c2 | 
[V:3] F,8 | 
[V:4] D,8 | 
[V:1] G4E4- | 
[V:2] B8 | 
[V:3] G,8 | 
[V:4] E,8 | 
[V:1] E4F4 | 
[V:2] c4A4 | 
[V:3] A,8 | 
[V:4] A,,8 | 
[V:1] G4E4 | 
[V:2] B4c4 | 
[V:3] D,4C,4 | 
[V:4] G,,4A,,4 | 
[V:1] D4C4- | 
[V:2] d4e4 | 
[V:3] G,6F,2 | 
[V:4] B,,4C,4- | 
[V:1] C4D4 | 
[V:2] A4B4 | 
[V:3] E,4D,4 | 
[V:4] C,4B,,4 | 
[V:1] E2F2G4- | 
[V:2] G4G4- | 
[V:3] C,4E,4- | 
[V:4] C,8 | 
[V:1] G2F2D4 | 
[V:2] G4G4 | 
[V:3] E,4D,4 | 
[V:4] B,,8 | 
[V:1] C8 | 
[V:2] A8 | 
[V:3] E,8 | 
[V:4] A,,8- | 
[V:1] A4A4- | 
[V:2] c4d4 | 
[V:3] z8 | 
[V:4] A,,8 | 
[V:1] A2G2F2E2 | 
[V:2] e4c4- | 
[V:3] A,8- | 
[V:4] z8 | 
[V:1] E8 | 
[V:2] c4A4 | 
[V:3] A,8 | 
[V:4] z8 | 
[V:1] E4G4- | 
[V:2] c6d2 | 
[V:3] E,6F,2 | 
[V:4] z8 | 
[V:1] G2A2B4 | 
[V:2] B8 | 
[V:3] G,8 | 
[V:4] z8 | 
[V:1] c8 | 
[V:2] A8 | 
[V:3] A,8 | 
[V:4] z8 | 
[V:1] c4c4- | 
[V:2] a6g2 | 
[V:3] A,8 | 
[V:4] z8 | 
[V:1] c2B2A4 | 
[V:2] e4f4 | 
[V:3] A,8 | 
[V:4] z8 | 
[V:1] G4A4- | 
[V:2] d4e4- | 
[V:3] B,4C4- | 
[V:4] z8 | 
[V:1] A4G4- | 
[V:2] e4d4- | 
[V:3] C4B,4 | 
[V:4] z8 | 
[V:1] G4^F4 | 
[V:2] d4c4 | 
[V:3] A,8 | 
[V:4] z8 | 
[V:1] G8- | 
[V:2] d8- | 
[V:3] G,8 | 
[V:4] z8 | 
[V:1] G8 | 
[V:2] d8- | 
[V:3] B,8 | 
[V:4] z8 | 
[V:1] F8 | 
[V:2] d8 | 
[V:3] A,8 | 
[V:4] D,8 | 
[V:1] E4G4- | 
[V:2] z4d4- | 
[V:3] z4B,4- | 
[V:4] C,4B,,4- | 
[V:1] G4A4- | 
[V:2] d4e4- | 
[V:3] B,4C4- | 
[V:4] B,,4A,,4 | 
[V:1] A2G2E4 | 
[V:2] e4e4 | 
[V:3] C2B,2G,4 | 
[V:4] C,8 | 
[V:1] D8 | 
[V:2] f8 | 
[V:3] F,4_B,4- | 
[V:4] D,8 | 
[V:1] z8 | 
[V:2] d4e4- | 
[V:3] B,4A,4- | 
[V:4] z4C,4- | 
[V:1] z8 | 
[V:2] e4d4 | 
[V:3] A,4G,4 | 
[V:4] C,4B,,4 | 
[V:1] E6F2 | 
[V:2] c8 | 
[V:3] A,4C4 | 
[V:4] A,,8 | 
[V:1] G8 | 
[V:2] d4B4 | 
[V:3] B,4E,4 | 
[V:4] G,,8 | 
[V:1] F4E4 | 
[V:2] A2c4d2 | 
[V:3] F,6G,2 | 
[V:4] A,,8- | 
[V:1] C8 | 
[V:2] e8 | 
[V:3] E,8 | 
[V:4] A,,8 | 
[V:1] D4F4 | 
[V:2] f4d4 | 
[V:3] D,8 | 
[V:4] z8 | 
[V:1] E4A4- | 
[V:2] c8 | 
[V:3] A,8 | 
[V:4] A,,8 | 
[V:1] A2F2G4 | 
[V:2] z8 | 
[V:3] B,8 | 
[V:4] E,8 | 
[V:1] A8- | 
[V:2] c8 | 
[V:3] A,8- | 
[V:4] F,8- | 
[V:1] A8 | 
[V:2] d4c4 | 
[V:3] A,4C4- | 
[V:4] F,8 | 
[V:1] G8 | 
[V:2] e6dc | 
[V:3] C4B,4 | 
[V:4] E,8 | 
[V:1] z4G4 | 
[V:2] B4c4 | 
[V:3] G,8 | 
[V:4] E,8 | 
[V:1] A4B4 | 
[V:2] d8 | 
[V:3] F,8 | 
[V:4] D,8 | 
[V:1] c8 | 
[V:2] e4g4 | 
[V:3] G,4E,4 | 
[V:4] C,8 | 
[V:1] z4A4- | 
[V:2] f8 | 
[V:3] D,8 | 
[V:4] D,8 | 
[V:1] A4c4 | 
[V:2] e8 | 
[V:3] C,8 | 
[V:4] A,,8 | 
[V:1] B8 | 
[V:2] d8 | 
[V:3] G,8 | 
[V:4] z4B,,4- | 
[V:1] G4A4- | 
[V:2] d4e4- | 
[V:3] B,4A,4- | 
[V:4] B,,4C,4- | 
[V:1] A4B4 | 
[V:2] e2f2g4 | 
[V:3] A,4G,4 | 
[V:4] C,4B,,4 | 
[V:1] c4A4 | 
[V:2] a8 | 
[V:3] F,8 | 
[V:4] A,,8 | 
[V:1] B4d4- | 
[V:2] z4g4- | 
[V:3] G,8 | 
[V:4] G,,8 | 
[V:1] d2c2B2A2 | 
[V:2] g4f4 | 
[V:3] z4D4 | 
[V:4] B,,8 | 
[V:1] G8 | 
[V:2] e4c4 | 
[V:3] E4E4- | 
[V:4] C,6B,,2 | 
[V:1] A8 | 
[V:2] e4f4 | 
[V:3] E2D2C4 | 
[V:4] A,,8 | 
[V:1] B8 | 
[V:2] g8 | 
[V:3] B,4E4- | 
[V:4] G,,8 | 
[V:1] c8 | 
[V:2] z4a4- | 
[V:3] E4C4 | 
[V:4] A,,8 | 
[V:1] B4d4 | 
[V:2] a2f4d2 | 
[V:3] D4B,4 | 
[V:4] z8 | 
[V:1] c4B4- | 
[V:2] f4g4 | 
[V:3] A,4G,4 | 
[V:4] z8 | 
[V:1] B2A2A4- | 
[V:2] e4e4- | 
[V:3] A,4C4 | 
[V:4] z8 | 
[V:1] A4^G4 | 
[V:2] e4d4 | 
[V:3] B,8 | 
[V:4] z8 | 
[V:1] A8- | 
[V:2] e8- | 
[V:3] z4C4- | 
[V:4] A,,8- | 
[V:1] A4G2F2 | 
[V:2] e4c4- | 
[V:3] C4A,4 | 
[V:4] A,,8- | 
[V:1] E8- | 
[V:2] c4A4 | 
[V:3] A,6G,2 | 
[V:4] A,,8- | 
[V:1] E8 ||  
[V:2] A8 ||  
[V:3] E,8 ||  
[V:4] A,,8 ||  
[V:1]  [K:C] [K:clef=treble][M:3/1]G6A2B4 | 
[V:2]  [K:C] [K:clef=treble-8][M:3/1]e6f2g4 | 
[V:3]  [K:C] [K:clef=bass][M:3/1]B,12 | 
[V:4]  [K:C] [K:clef=bass][M:3/1]E,12 | 
[V:1] B4A2A4F2 | 
[V:2] f6e2d4 | 
[V:3] D6C2A,4 | 
[V:4] D,12 | 
[V:1] G4E4D4 | 
[V:2] c4B4G4 | 
[V:3] G,8B,4- | 
[V:4] E,8G,4- | 
[V:1] d4c4A4 | 
[V:2] z2g4f4e2 | 
[V:3] B,4C8 | 
[V:4] G,4A,8 | 
[V:1] B4G4A4 | 
[V:2] g6f2d4 | 
[V:3] D8z4 | 
[V:4] G,8F,4 | 
[V:1] z4A6G2 | 
[V:2] e4f8 | 
[V:3] C4D6B,2 | 
[V:4] E,4D,8 | 
[V:1] G12 ||  
[V:2] e12 ||  
[V:3] B,12 ||  
[V:4] E,12 ||  
[V:1]  [K:C] [K:clef=treble][M:3/1]A8G4 | 
[V:2]  [K:C] [K:clef=treble-8][M:3/1]c8e4 | 
[V:3]  [K:C] [K:clef=bass][M:3/1]E,12 | 
[V:4]  [K:C] [K:clef=bass][M:3/1]A,,8C,4 | 
[V:1] F4D4z4 | 
[V:2] A2B3AA4^G2 | 
[V:3] D,12 | 
[V:4] D,4B,,8 | 
[V:1] A4c4B4- | 
[V:2] A2c2d2e4d2 | 
[V:3] E,8G,4- | 
[V:4] A,,8G,,4- | 
[V:1] B4A4F4 | 
[V:2] d8z4 | 
[V:3] G,4A,8 | 
[V:4] G,,4D,8 | 
[V:1] E8F4 | 
[V:2] B4c4d2B2 | 
[V:3] G,8F,4 | 
[V:4] E,4E,4D,4 | 
[V:1] G2A3GA2B2d2 | 
[V:2] c4A2A4^G2 | 
[V:3] E,4D,8 | 
[V:4] C,2A,,4C,2B,,4 | 
[V:1] c12 ||  
[V:2] A12 ||  
[V:3] E,12 ||  
[V:4] A,,12 ||  
[V:1]  [K:C] [K:clef=treble][M:2/1]G6E2 | 
[V:2]  [K:C] [K:clef=treble-8][M:2/1]e8- | 
[V:3]  [K:C] [K:clef=bass][M:2/1]B,8 | 
[V:4]  [K:C] [K:clef=bass][M:2/1]E,8- | 
[V:1] G6B2- | 
[V:2] e8 | 
[V:3] C4E4- | 
[V:4] E,8- | 
[V:1] B2A2A4 | 
[V:2] z4e4 | 
[V:3] E2D2B,4 | 
[V:4] E,8- | 
[V:1] G6F2 | 
[V:2] e8 | 
[V:3] C8 | 
[V:4] E,8 | 
[V:1] _B6A2- | 
[V:2] f8- | 
[V:3] z4D4 | 
[V:4] D,8- | 
[V:1] A2G2F2E2 | 
[V:2] f4d4 | 
[V:3] D8 | 
[V:4] D,8 | 
[V:1] E8 | 
[V:2] c8 | 
[V:3] A,4C4 | 
[V:4] z8 | 
[V:1] D8 | 
[V:2] z4d4 | 
[V:3] B,4G,4- | 
[V:4] z8 | 
[V:1] G4A4 | 
[V:2] e4f4 | 
[V:3] G,2A,2C4 | 
[V:4] E,8- | 
[V:1] B8 | 
[V:2] g6fg | 
[V:3] B,8 | 
[V:4] E,8 | 
[V:1] c8- | 
[V:2] a8- | 
[V:3] A,6G,2 | 
[V:4] A,,8- | 
[V:1] c8 | 
[V:2] a8 | 
[V:3] E,4F,4- | 
[V:4] A,,8 | 
[V:1] B8 | 
[V:2] d8 | 
[V:3] F,4G,4 | 
[V:4] B,,8 | 
[V:1] G8 | 
[V:2] e8 | 
[V:3] E,8 | 
[V:4] C,8 | 
[V:1] z4A4- | 
[V:2] f4d4- | 
[V:3] D,8 | 
[V:4] z8 | 
[V:1] A4G4 | 
[V:2] d4c4 | 
[V:3] F,4E,4 | 
[V:4] z8 | 
[V:1] B4d4 | 
[V:2] d8 | 
[V:3] D,4G,4- | 
[V:4] B,,8 | 
[V:1] c4A4 | 
[V:2] z8 | 
[V:3] G,4^F,4 | 
[V:4] A,,8 | 
[V:1] B4G4 | 
[V:2] d8 | 
[V:3] G,8 | 
[V:4] G,,8- | 
[V:1] D4G4- | 
[V:2] G4d4- | 
[V:3] B,8 | 
[V:4] G,,8 | 
[V:1] G4^F4 | 
[V:2] d4c4 | 
[V:3] A,8 | 
[V:4] z8 | 
[V:1] G8 | 
[V:2] d4c4 | 
[V:3] G,8 | 
[V:4] B,,4C,4 | 
[V:1] z8 | 
[V:2] A4f4- | 
[V:3] F,4A,4- | 
[V:4] D,8 | 
[V:1] A8- | 
[V:2] f4e4 | 
[V:3] A,2G,2E,4 | 
[V:4] D,4C,4 | 
[V:1] A8 | 
[V:2] d8 | 
[V:3] F,6E,2 | 
[V:4] D,8 | 
[V:1] G8- | 
[V:2] z4c4- | 
[V:3] C,4G,4- | 
[V:4] E,8- | 
[V:1] G8 | 
[V:2] c4e4- | 
[V:3] G,2A,2B,4 | 
[V:4] E,8 | 
[V:1] G4F4 | 
[V:2] e4c4 | 
[V:3] C4A,4- | 
[V:4] z8 | 
[V:1] D8 | 
[V:2] B8 | 
[V:3] A,4^G,4 | 
[V:4] z8 | 
[V:1] z4E4- | 
[V:2] c8 | 
[V:3] A,6G,2 | 
[V:4] A,,8 | 
[V:1] E2C2C4 | 
[V:2] A8 | 
[V:3] E,8- | 
[V:4] A,,8 | 
[V:1] z4A4 | 
[V:2] B4c4- | 
[V:3] E,8 | 
[V:4] G,,4A,,4- | 
[V:1] A8 | 
[V:2] c4d4 | 
[V:3] F,8 | 
[V:4] A,,4B,,4 | 
[V:1] G8- | 
[V:2] e8 | 
[V:3] E,8 | 
[V:4] C,8 | 
[V:1] G8 | 
[V:2] d8- | 
[V:3] z4B,4- | 
[V:4] B,,8- | 
[V:1] z4G4 | 
[V:2] d8 | 
[V:3] B,2C2D4- | 
[V:4] B,,8- | 
[V:1] G6A2 | 
[V:2] B6c2 | 
[V:3] D2C2B,2A,2 | 
[V:4] B,,8- | 
[V:1] B8 | 
[V:2] d8 | 
[V:3] G,6F,2 | 
[V:4] B,,8 | 
[V:1] c8 | 
[V:2] f4e4 | 
[V:3] (3:2:2A,8G,4 | 
[V:4] A,,8- | 
[V:1] (3:2:2A8G4 | 
[V:2] c8 | 
[V:3] (3E,4F,4E,4 | 
[V:4] A,,8- | 
[V:1] (3E4F4A4- | 
[V:2] A4d4- | 
[V:3] (3A,6G,2F,4 | 
[V:4] A,,8- | 
[V:1] (3A4G4E4 | 
[V:2] d2B2^c4 | 
[V:3] (3:2:2D,4E,8 | 
[V:4] A,,8 | 
[V:1] F8 & A8 |]  
[V:2] d8 |]  
[V:3] D,8 |]  
[V:4] D,8 |]  



